src/svg/screenshotwindow.svg

<svg height="35" viewBox="0 0 35 35" width="35" xmlns="http://www.w3.org/2000/svg"><g fill="none" fill-rule="evenodd"><path d="m9.5 25c-1.93 0-3.5-1.57-3.5-3.5v-7c0-1.93 1.57-3.5 3.5-3.5h1c.466 0 .887-.51 1.105-.947.634-1.267 1.423-2.053 3.395-2.053h4c1.972 0 2.761.786 3.395 2.053.218.437.639.947 1.105.947h1c1.93 0 3.5 1.57 3.5 3.5v7c0 1.93-1.57 3.5-3.5 3.5z" fill="#fff"/><g fill="#000"><path d="m17 22c-2.762 0-5-2.238-5-5s2.238-5 5-5 5 2.238 5 5-2.238 5-5 5m7.5-10h-1c-1 0-1.684-.868-2-1.5-.5-1-1-1.5-2.5-1.5h-2-2c-1.5 0-2 .5-2.5 1.5-.316.632-1 1.5-2 1.5h-1c-1.381 0-2.5 1.119-2.5 2.5v7c0 1.381 1.119 2.5 2.5 2.5h15c1.381 0 2.5-1.119 2.5-2.5v-7c0-1.381-1.119-2.5-2.5-2.5"/><path d="m20 17c0 1.656-1.344 3-3 3s-3-1.344-3-3 1.344-3 3-3 3 1.344 3 3"/></g></g></svg>

<?xml version="1.0" encoding="UTF-8" standalone="no"?>
<svg width="35px" height="35px" viewBox="0 0 35 35" version="1.1" xmlns="http://www.w3.org/2000/svg" xmlns:xlink="http://www.w3.org/1999/xlink">
    <defs></defs>
    <g id="Page-1" stroke="none" stroke-width="1" fill="none" fill-rule="evenodd">
        <g id="screenshotwindow">
            <g id="bg-copy" fill="#FFFFFF" opacity="0.00999999978">
                <rect id="bg" x="0" y="0" width="35" height="35"></rect>
            </g>
            <path d="M9.5,25 C7.57,25 6,23.43 6,21.5 L6,14.5 C6,12.57 7.57,11 9.5,11 L10.5,11 C10.966,11 11.387,10.49 11.605,10.053 C12.239,8.786 13.028,8 15,8 L19,8 C20.972,8 21.761,8.786 22.395,10.053 C22.613,10.49 23.034,11 23.5,11 L24.5,11 C26.43,11 28,12.57 28,14.5 L28,21.5 C28,23.43 26.43,25 24.5,25 L9.5,25 Z" id="camera-border" fill="#FFFFFF"></path>
            <path d="M17,22 C14.238,22 12,19.762 12,17 C12,14.238 14.238,12 17,12 C19.762,12 22,14.238 22,17 C22,19.762 19.762,22 17,22 M24.5,12 L23.5,12 C22.5,12 21.816,11.132 21.5,10.5 C21,9.5 20.5,9 19,9 L17,9 L15,9 C13.5,9 13,9.5 12.5,10.5 C12.184,11.132 11.5,12 10.5,12 L9.5,12 C8.119,12 7,13.119 7,14.5 L7,21.5 C7,22.881 8.119,24 9.5,24 L24.5,24 C25.881,24 27,22.881 27,21.5 L27,14.5 C27,13.119 25.881,12 24.5,12" id="body" fill="#000000"></path>
            <path d="M20,17 C20,18.656 18.656,20 17,20 C15.344,20 14,18.656 14,17 C14,15.344 15.344,14 17,14 C18.656,14 20,15.344 20,17" id="lens" fill="#000000"></path>
        </g>
    </g>
</svg>
